X: 9621
T: Dawn, The
R: reel
M: 4/4
K: Gmajor
|:G2 B/c/d c2 EG|DFAF G3B|ADBD cDBG|A/B/c BA GFED|
G2 Bd cEGE|D/D/D FA G3d|edef g/f/e dc|BdAd BG B/c/d:|
|:~g3d ed B/c/d|eaaf gfed|f/e/d ad b2 ad|gbdg bdef|
~g3d edBd|cdef g3e|d2 g/f/e dBGB|cADF G2 B/c/d:|

